X: 6
T: No_15_Song_Telling_Where_Maidens_Are_Grinding_Corn.krn
N: Derived from No_15_Song_Telling_Where_Maidens_Are_Grinding_Corn.krn
%%abc-version 2.0
%%abcx-abcm2ps-target-version 5.9.1 (29 Sep 2008)
%%abc-creator hum2abc beta
%%abcx-conversion-date 2019/03/15 08:25:35
%%humdrum-veritas 2652489174
%%humdrum-veritas-data 3022062415
%%linebreak <none>
%%barnumbers 0
L: 1/8
M: 2/4
K: C clef=bass
[K:clef=bass][M:2/4]C/A,A,/ CA, | 
[M:5/8]A,A,A,A, z | 
[M:3/4]C/A,A,/ A,A, C/A,/A, ]|:  
G3(3A/G/F/F2 | 
[M:2/4]D2D3/D/ | 
C/C/A, G, z | 
D3/F/ G/F/E/D/ | 
FC A,3/C/ | 
A,/G,/G,/G,/G,2 | 
E2D/C/B,/A,/ | 
C3/A,/ G, z | 
[M:3/4]DB, B,B, A,G, | 
B,B,/B,/ B, z A,G, | 
[M:2/4]DB, B,B, | 
A,/A,3/ A,B, | 
A,A, A,A, | 
[M:3/4]B,A, A,A, A, z | 
B,A, A,A, B,/B,/A, :|]  



